T: Twm Edwards
M: 6/8
L: 1/8
K: Gmaj
|: GAG BGB | dBd gdB | ~ four bars repeating|: gbg ege | faf dfd | ~ four bars repeating|: cdc c2 a | BcB B2 g | ~ four bars repeating
